X: 1
T: Mind The Crawler
M: 4/4
L: 1/8
R: reel
K: Gmaj
DG G2 EGDE|G3 A B d3|e3 g degd|(3efg dB ABGE|
DG G2 EGDE|G3 A B d3|e3 g dege|dBAB G3z:|
Be e2 ge e2|dBAB G3 A|Be e2 ge e2|ageg e3 d|
Be e2 ge e2|dBAB G3 A|BG G2 AE E2|DGGF G3z:|
